svg/color/aaplon.svg

<svg width="40" height="40" viewBox="0 0 40 40" fill="none" xmlns="http://www.w3.org/2000/svg">
<g clip-path="url(#clip0_821_3975)">
<path d="M20 0C31.0457 0 40 8.9543 40 20C40 31.0457 31.0457 40 20 40C8.95431 40 7.90517e-06 31.0457 0 20C6.58765e-07 8.95431 8.95431 1.97595e-06 20 0Z" fill="#D9D9D9"/>
<path d="M26 6C30.4183 6 34 9.58172 34 14V26C34 30.4183 30.4183 34 26 34H14C9.58172 34 6 30.4183 6 26V14C6 9.58172 9.58172 6 14 6H26Z" fill="black"/>
<path d="M20.114 15.172C19.403 15.172 18.3028 14.3635 17.1441 14.392C15.6141 14.4122 14.2116 15.2792 13.4233 16.6525C11.8356 19.4087 13.0138 23.4797 14.5626 25.7199C15.3223 26.8104 16.2186 28.0374 17.4066 27.9991C18.5465 27.9504 18.974 27.2589 20.3578 27.2589C21.731 27.2589 22.1203 27.9991 23.3278 27.9699C24.5555 27.9504 25.3347 26.8599 26.0847 25.7589C26.9517 24.4929 27.3117 23.2652 27.3312 23.1977C27.302 23.1879 24.9447 22.2819 24.9162 19.5549C24.8967 17.275 26.7762 16.1845 26.864 16.1357C25.7922 14.5682 24.1468 14.3927 23.5715 14.3537C22.0715 14.2367 20.8153 15.172 20.114 15.172ZM22.6475 12.8725C23.2798 12.1135 23.6975 11.0522 23.5813 10C22.676 10.039 21.5848 10.6037 20.9323 11.3635C20.3473 12.0355 19.8418 13.117 19.9775 14.149C20.981 14.227 22.0138 13.633 22.6468 12.8732" fill="white"/>
</g>
<defs>
<clipPath id="clip0_821_3975">
<rect width="40" height="40" fill="white"/>
</clipPath>
</defs>
</svg>

<svg xmlns="http://www.w3.org/2000/svg" width="40" height="40" fill="none" viewBox="0 0 40 40"><g clip-path="url(#aaplon_svg-a)"><path fill="#D9D9D9" d="M20 0c11.046 0 20 8.954 20 20s-8.954 20-20 20S0 31.046 0 20 8.954 0 20 0"/><path fill="#000" d="M26 6a8 8 0 0 1 8 8v12a8 8 0 0 1-8 8H14a8 8 0 0 1-8-8V14a8 8 0 0 1 8-8z"/><path fill="#fff" d="M20.114 15.172c-.711 0-1.811-.809-2.97-.78-1.53.02-2.932.887-3.72 2.26-1.588 2.757-.41 6.828 1.139 9.068.76 1.09 1.656 2.317 2.844 2.28 1.14-.05 1.567-.741 2.95-.741 1.374 0 1.763.74 2.97.71 1.228-.019 2.008-1.11 2.758-2.21a9.8 9.8 0 0 0 1.246-2.561c-.029-.01-2.386-.916-2.415-3.643-.02-2.28 1.86-3.37 1.948-3.42-1.072-1.567-2.717-1.742-3.293-1.781-1.5-.117-2.756.818-3.457.818m2.534-2.3c.632-.758 1.05-1.82.933-2.872-.905.039-1.996.604-2.649 1.364-.585.672-1.09 1.753-.954 2.785 1.003.078 2.036-.516 2.669-1.276"/></g><defs><clipPath id="aaplon_svg-a"><path fill="#fff" d="M0 0h40v40H0z"/></clipPath></defs></svg>
